X:1
T:The Wind and Rain
M:4/4
L:1/8
K:C
 G2| c2 c2 cc dc| BA BA G4| f- d2 d g2 f2| d6 d2| ed ef g2 ge| dc de f2 ge|\
 d3 e c2 G2| c2 A2 G4-| G2 z4||
